X: 5888
T: Cam Ye By Athole
R: waltz
M: 3/4
K: Dmajor
F3 E D2|D4 B2|A2 F2 d2|F3 E D2|F3 E E2|E2 F2 A2|d3 c B2|B2 A2 F2|
A2 B2 d2|e2 d2 B2|B2 A2 F2|A2 B2 d2|F3 E F2|d3 c B2|A3 D F2|E4 D2||
d3 A A2|e3 A A2|f2 e2 d2|d A3 B2|A2 F2 D2|D4 de|f3 e d2|e4 d2|
d4 A2|e2 f2 g2|f2 e2 d2|d3 c B2|A3 B A2|A2 D2 E2|F A3 F2|E4 D2||

